src/amo/components/Icon/img/star.svg

<svg viewBox="107 3340 142 136" version="1.1" xmlns="http://www.w3.org/2000/svg" xmlns:xlink="http://www.w3.org/1999/xlink">
    <!-- Generator: Sketch 41.2 (35397) - http://www.bohemiancoding.com/sketch -->
    <desc>Created with Sketch.</desc>
    <defs></defs>
    <path d="M182.343612,3347.6576 L200.175025,3383.78287 L240.041958,3389.57853 C243.951776,3390.14909 245.513301,3394.95378 242.684538,3397.71048 L213.832362,3425.82994 L220.643013,3465.54072 C221.309664,3469.43852 217.21967,3472.40542 213.724257,3470.56762 L178.067436,3451.82332 L142.404609,3470.57363 C138.909195,3472.41143 134.819201,3469.43852 135.485852,3465.54072 L142.296503,3425.82994 L113.444327,3397.71048 C110.615565,3394.95378 112.17709,3390.14309 116.086908,3389.57853 L155.95384,3383.78287 L173.785254,3347.6576 C175.538966,3344.11413 180.595905,3344.11413 182.343612,3347.6576 L182.343612,3347.6576 Z" id="Shape" stroke="#FFFFFF" stroke-width="8" stroke-linecap="round" stroke-linejoin="round" fill="none"></path>
</svg>

<svg viewBox="107 3340 142 136" xmlns="http://www.w3.org/2000/svg"><path d="m182.344 3347.658 17.831 36.125 39.867 5.796c3.91.57 5.471 5.375 2.643 8.131l-28.853 28.12 6.811 39.71c.667 3.899-3.423 6.865-6.919 5.028l-35.657-18.745-35.662 18.75c-3.496 1.838-7.586-1.134-6.92-5.032l6.812-39.711-28.853-28.12c-2.828-2.756-1.267-7.567 2.643-8.131l39.867-5.796 17.831-36.125c1.754-3.544 6.81-3.544 8.559 0h0Z" stroke="#FFF" stroke-width="8" stroke-linecap="round" stroke-linejoin="round" fill="none"/></svg>
